X:1
T:Autograph -- Hornpipe
R:hornpipe
B:Cole's 1000 Fiddle Tunes
M:C|
L:1/8
K:Bb
uF2|B>dc>B A>cB>A|Bd f2-f>FG>A|\
B>dc>B A>cB>A|Bdf2-fde>f|
((3g=fg) _e>g ((3=f=ef) d>f|((3_ede) c>e ((3dcd) B>d|\
((3cBc) ((3dcB) ((3ABc) ((3FGA)|((3Bde) ((3fga) b2:|
|:uc2|c3A F>Ac>e|d>Bf>d ((3bag) ((3fed)|\
((3cdc) ((3ABA) F>Ac>e|d>Bf>d ((3bag) ((3fed)|
|g>ec>G ((3EGB) ((3egb)|f>dB>F ((3DFA) ((3dfb)|\
g>ed>c f>dc>A|B2[b2d2]B2:|
